symbolic/22x22/apps/dragonplayer.svg

<svg xmlns="http://www.w3.org/2000/svg" width="22" height="22" version="1.1">
 <rect style="opacity:0.2" width="20" height="20" x="1" y="1.5" rx="1.5" ry="1.5"/>
 <rect style="fill:#413d58" width="20" height="20" x="1" y="1" rx="1.5" ry="1.5"/>
 <path style="opacity:0.2" d="m 13.000499,9.5 c 0,0 0.094,1.75 -1.406499,2.749999 -1.5,1 -5.3605001,1.6195 -7.25,2.6565 -1.3829999,0.7585 -2.3439999,2.094 -2.3439999,2.094 0,0 1.9999999,-1 2.9999999,-1 0.9999999,0 2.4999999,0.5 2.4999999,0.5 0,0 0.9999999,-1 2.5000001,-1 1.5,0 3.999999,1 3.999999,1 l -0.5,-5.999999 z"/>
 <path style="opacity:0.1;fill:#ffffff" d="m 2.5,0.9999999 c -0.831,0 -1.5,0.6689999 -1.5,1.5 v 0.4999999 c 0,-0.831 0.669,-1.4999999 1.5,-1.4999999 h 16.999999 c 0.831,0 1.5,0.6689999 1.5,1.4999999 V 2.4999999 c 0,-0.8310001 -0.669,-1.5 -1.5,-1.5 z"/>
 <path style="fill:#00d6cc" d="m 12.499999,7.4999997 c 0,0 0,3.0000003 -1.499999,4.0000003 -1.4999999,0.999999 -4.5000001,1.499999 -6.5,2.499999 -1.9999999,1 -2.4999999,2.5 -2.4999999,2.5 0,0 1.9999999,-1.527241 2.9999999,-1.527241 0.9999999,0 2.4999999,-0.472759 2.4999999,-0.472759 0,0 1.2050379,-0.320152 2.7050381,-0.320152 1.5,0 2.794961,-0.179848 2.794961,-0.179848 L 13.499999,10 Z"/>
 <path style="fill:#365d78" d="m 13.000499,8.9994996 c 0,0 0.094,1.7500004 -1.406499,2.7499994 -1.5,1 -5.3605001,1.6195 -7.25,2.6565 -1.3829999,0.7585 -2.3439999,2.094 -2.3439999,2.094 0,0 1.9999999,-1 2.9999999,-1 0.9999999,0 2.4999999,0.5 2.4999999,0.5 0,0 0.9999999,-1 2.5000001,-1 1.5,0 3.999999,1 3.999999,1 L 13.499999,10 Z"/>
 <path style="opacity:0.2" d="M 11.291015,4.5097653 C 11.02834,4.5662013 10.06765,5.5910732 9.6435541,5.9980467 9.1588721,6.4631597 9.1198471,6.2485182 8.5576168,6.5585937 7.9953859,6.8686687 7.6497844,7.3790067 7.4365234,7.7666011 7.2232629,8.1541946 6.6836359,8.2921686 6.1230469,8.8525386 5.562458,9.412908 5.0009765,9.734595 5.0009765,10.761719 c 0.023315,0.01938 -0.074444,0.153622 0.158203,0.192382 0.2326475,0.03876 0.354524,-0.04951 0.4902345,-0.262695 C 5.7851254,10.47823 7.1264509,9.851613 7.9794919,9.483398 8.8325323,9.115184 9.3739411,8.9229011 9.6259761,8.5546871 c 0.252035,-0.3682145 0.336751,-0.331594 0.8408209,-0.5253905 0.504069,-0.193797 1.506446,0.034025 2.243163,1.1386724 0.736717,1.104642 0.809427,1.975284 0.790039,4.184569 -0.01939,2.209286 -0.739044,3.395308 -1.630859,4.868164 -0.50572,0.835212 -2.6165409,2.349651 -4.0732416,3.279297 h 5.9208976 c 0.145974,-0.259541 0.321731,-0.561011 0.412109,-0.739258 0.222106,-0.438038 1.9282,-5.106338 2.34668,-8.09082 0.07417,-0.528918 0.89355,-0.655904 0.652344,-1.288085 C 16.944861,10.902029 15.697753,9.837903 15.669921,9.780273 15.557805,9.548123 16.222463,9.314132 15.99121,8.9580076 15.662622,8.4519891 14.674633,7.8598386 14.538085,7.7460937 14.305438,7.5522972 14.649187,7.4044307 14.881835,7.1718747 14.59788,6.5971012 14.080177,6.3357962 13.326171,6.2392577 c -0.387745,0 -0.102908,-0.6082645 0.110352,-0.8408205 -0.38486,-0.3954574 -1.104546,-0.2675784 -1.760742,-0.135742 -0.305995,-0.032235 0.165832,-0.8606104 -0.384766,-0.7529299 z"/>
 <path style="fill:#167ddd" d="M 11.291015,4.0097653 C 11.02834,4.0662013 10.06765,5.0910733 9.6435541,5.4980467 9.1588721,5.9631597 9.1198471,5.7485182 8.5576168,6.0585937 7.9953859,6.3686687 7.6497844,6.8790067 7.4365234,7.2666012 7.2232629,7.6541947 6.6836359,7.7921686 6.1230469,8.3525386 5.562458,8.9129081 5.0009765,9.234595 5.0009765,10.261719 c 0.023315,0.01938 -0.074444,0.153622 0.158203,0.192382 0.2326475,0.03876 0.354524,-0.04951 0.4902345,-0.262695 C 5.7851254,9.97823 7.1264509,9.351613 7.9794919,8.9833981 8.8325323,8.6151836 9.3739411,8.4229011 9.6259761,8.0546871 9.8780111,7.6864727 9.9627271,7.7230932 10.466797,7.5292967 c 0.504069,-0.193797 1.506446,0.034025 2.243163,1.1386719 0.736717,1.1046424 0.809427,1.9752844 0.790039,4.1845694 -0.01939,2.209286 -0.739044,3.395308 -1.630859,4.868164 -0.50572,0.835212 -2.6165409,2.349651 -4.0732416,3.279297 h 5.9208976 c 0.145974,-0.259541 0.321731,-0.561011 0.412109,-0.739258 0.222106,-0.438038 1.9282,-5.106338 2.34668,-8.09082 0.07417,-0.528918 0.89355,-0.655904 0.652344,-1.288085 C 16.944861,10.402029 15.697753,9.337903 15.669921,9.280273 15.557805,9.048123 16.222463,8.8141316 15.99121,8.4580076 15.662622,7.9519891 14.674633,7.3598387 14.538085,7.2460937 14.305438,7.0522972 14.649187,6.9044307 14.881835,6.6718747 14.59788,6.0971012 14.080177,5.8357962 13.326171,5.7392577 c -0.387745,0 -0.102908,-0.6082644 0.110352,-0.8408204 -0.38486,-0.3954575 -1.104546,-0.2675785 -1.760742,-0.135742 -0.305995,-0.032235 0.165832,-0.8606105 -0.384766,-0.75293 z"/>
 <path style="opacity:0.2;fill:#ffffff" d="M 11.291015,4.0097653 C 11.02834,4.0662013 10.06765,5.0910733 9.6435541,5.4980467 9.1588721,5.9631597 9.1198471,5.7485182 8.5576168,6.0585937 7.9953859,6.3686687 7.6497844,6.8790067 7.4365234,7.2666012 7.2232629,7.6541947 6.6836359,7.7921686 6.1230469,8.3525386 5.562458,8.9129081 5.0009765,9.234595 5.0009765,10.261719 c 0.015925,0.01323 -0.01849,0.07943 0.02832,0.132812 0.119228,-0.746622 0.606423,-1.054856 1.0937499,-1.5419924 0.560589,-0.56037 1.100216,-0.698344 1.3134765,-1.0859375 C 7.6497839,7.3790067 7.9953854,6.8686687 8.5576163,6.5585937 9.1198461,6.2485182 9.1588711,6.4631597 9.6435541,5.9980467 10.06765,5.5910732 11.028339,4.5662013 11.291015,4.5097653 c 0.550598,-0.1076805 0.07877,0.720695 0.384765,0.7529299 0.549958,-0.1104919 1.14221,-0.2144924 1.546875,-0.01367 0.06058,-0.134759 0.137332,-0.2671255 0.213867,-0.350586 -0.38486,-0.3954575 -1.104545,-0.2675785 -1.760742,-0.135742 -0.305994,-0.032235 0.165833,-0.8606103 -0.384765,-0.75293 z m 1.945312,1.7089844 c -0.11965,0.2497205 -0.169392,0.520508 0.08984,0.520508 0.5969,0.076424 1.043714,0.258522 1.345703,0.615234 0.07172,-0.058501 0.139534,-0.112218 0.209961,-0.182617 -0.283955,-0.5747735 -0.801658,-0.8360785 -1.555664,-0.932617 -0.03779,0 -0.06414,-0.00986 -0.08984,-0.02051 z m 1.445313,1.6279295 c -0.170199,0.1382675 -0.308938,0.261649 -0.143555,0.3994145 0.128306,0.1068794 1.001504,0.6358264 1.379883,1.1191404 0.101962,-0.119259 0.174563,-0.2511945 0.07324,-0.4072265 -0.292555,-0.450529 -1.037912,-0.9226829 -1.30957,-1.1113284 z m 1.164062,2.1015628 c -0.113564,0.118334 -0.227015,0.225945 -0.175781,0.332031 0.02705,0.05601 1.198445,1.058682 1.432617,1.555664 0.06955,-0.12309 0.09764,-0.26473 0.02539,-0.454101 C 16.968816,10.464815 16.113256,9.7036 15.845702,9.448242 Z m -2.349609,3.474609 c -0.03464,2.161934 -0.745149,3.341528 -1.626953,4.797851 -0.50572,0.835212 -2.6165409,2.349651 -4.0732416,3.279297 h 0.7490234 c 1.3522583,-0.91146 2.8987842,-2.07668 3.3242182,-2.779297 0.891815,-1.472856 1.611474,-2.658878 1.630859,-4.868164 0.0014,-0.165886 -0.0041,-0.27823 -0.0039,-0.429687 z"/>
 <path style="opacity:0.1" d="m 18.500499,6.9999997 c -0.5,0 -0.5,1.4999999 -2,3.0000003 -1.5,1.5 -2,1.5 -2,1.5 0,0 1.5,0.999999 1.5,2.999999 1.5,1 1.5,3 1.5,3 l 2,-5.5 -0.5,-3.9999994 z"/>
 <path style="fill:#365d78" d="m 18.500499,6.4994997 c -0.5,0 -0.5,1.4999999 -2,3.0000003 -1.5,1.5 -2,1.5 -2,1.5 0,0 1.5,0.999999 1.5,2.999999 1.5,1 1.5,3 1.5,3 l 2,-5.499999 -0.5,-4.0000003 z"/>
 <path style="fill:#ffffff" d="m 7.9999999,6.9688782 c 0.043585,-0.1715535 0.2143195,-0.330309 0.4892599,-0.4196365 0.274941,-0.089327 0.4793715,-0.049915 0.507642,0.060321 0.029585,0.1153655 -0.155523,0.279254 -0.436513,0.3530305 -0.2789855,0.073252 -0.4927184,0.01846 -0.5603884,0.00629 z"/>
 <path style="fill:#2e3436" d="m 8.4277248,6.5717242 c -0.025775,0.010725 -0.044755,0.02931 -0.06868,0.042205 -0.00873,0.050468 -0.010065,0.113027 0.01657,0.1971335 0.021075,0.066504 0.0442,0.133655 0.072956,0.1723555 0.04166,-0.00868 0.072947,-0.00788 0.117585,-0.01961 0.00503,-0.050418 -0.00703,-0.118204 -0.03127,-0.194683 -0.0281,-0.088673 -0.06946,-0.1636105 -0.1071625,-0.197406 z"/>
 <path style="opacity:0.2" d="m 18.499999,6.9999997 c 0.5,0 1.9,3.0000003 1.4,7.4999993 -0.5,4.5 -2.9,5.5 -2.9,5.5 0,0 -3.5,-0.5 -4.5,-0.5 -0.999999,0 -1.499999,0.5 -1.499999,0.5 0,0 -1.4999999,-1 -3.5000001,-1 -1.9999999,0 -4.4999998,2 -4.4999998,2 0,0 0.4999999,-2 3.4999998,-3 3.0000002,-1 7.8994991,-0.0795 9.4999991,-2 5,-5.999999 2,-8.9999993 2.5,-8.9999993"/>
 <path style="fill:#00d6cc" d="m 18.499999,6.4999997 c 0.5,0 1.9,3.0000003 1.4,7.4999993 -0.5,4.5 -2.9,5.5 -2.9,5.5 0,0 -3.5,-0.5 -4.5,-0.5 -0.999999,0 -1.499999,0.5 -1.499999,0.5 0,0 -1.4999999,-1 -3.5000001,-1 -1.9999999,0 -4.4999998,2 -4.4999998,2 0,0 0.4999999,-2 3.4999998,-3 3.0000002,-1 7.8994991,-0.0795 9.4999991,-2 5,-5.999999 2,-8.9999993 2.5,-8.9999993"/>
 <path style="opacity:0.2;fill:#ffffff" d="m 18.499999,6.4999997 c -0.12025,0 -0.03384,0.183233 0.09082,0.5302735 0.462904,0.2540615 1.379722,2.3048828 1.410156,5.4257808 0.07584,-3.6282724 -1.060688,-5.9560543 -1.500976,-5.9560543 z m 0.432617,2.7001953 c -0.05088,1.486701 -0.668015,3.582283 -2.932617,6.299804 -1.6005,1.9205 -6.4999989,1 -9.4999991,2 -2.9999999,1 -3.4999998,3 -3.4999998,3 0,0 0.1601979,-0.124509 0.3876952,-0.287109 0.435242,-0.671327 1.3239592,-1.616776 3.1123046,-2.212891 3.0000002,-1 7.8994991,-0.0795 9.4999991,-2 2.529538,-3.035445 3.009102,-5.300013 2.932617,-6.799804 z"/>
</svg>

<svg xmlns="http://www.w3.org/2000/svg" width="22" height="22"><rect style="opacity:.2" width="20" height="20" x="1" y="1.5" rx="1.5" ry="1.5"/><rect style="fill:#413d58" width="20" height="20" x="1" y="1" rx="1.5" ry="1.5"/><path style="opacity:.2" d="M13 9.5s.094 1.75-1.406 2.75-5.36 1.62-7.25 2.656C2.961 15.665 2 17 2 17s2-1 3-1 2.5.5 2.5.5 1-1 2.5-1 4 1 4 1l-.5-6z"/><path style="opacity:.1;fill:#fff" d="M2.5 1C1.669 1 1 1.669 1 2.5V3c0-.831.669-1.5 1.5-1.5h17c.831 0 1.5.669 1.5 1.5v-.5c0-.831-.669-1.5-1.5-1.5z"/><path style="fill:#00d6cc" d="M12.5 7.5s0 3-1.5 4S6.5 13 4.5 14 2 16.5 2 16.5s2-1.527 3-1.527 2.5-.473 2.5-.473 1.205-.32 2.705-.32S13 14 13 14l.5-4z"/><path style="fill:#365d78" d="M13 9s.094 1.75-1.406 2.75-5.36 1.619-7.25 2.656C2.961 15.164 2 16.5 2 16.5s2-1 3-1 2.5.5 2.5.5 1-1 2.5-1 4 1 4 1l-.5-6z"/><path style="opacity:.2" d="M11.291 4.51c-.263.056-1.223 1.081-1.647 1.488-.485.465-.524.25-1.086.56-.563.31-.908.821-1.121 1.209-.214.387-.753.525-1.314 1.086-.56.56-1.122.882-1.122 1.909.023.02-.074.153.158.192.233.039.355-.05.49-.263.136-.213 1.477-.84 2.33-1.208.854-.368 1.395-.56 1.647-.928.252-.369.337-.332.84-.526.505-.194 1.507.034 2.244 1.139.737 1.105.81 1.975.79 4.185-.02 2.209-.739 3.395-1.63 4.868-.507.835-2.617 2.35-4.074 3.279h5.92c.147-.26.323-.561.413-.74.222-.437 1.928-5.106 2.347-8.09.074-.529.893-.656.652-1.288-.183-.48-1.43-1.544-1.458-1.602-.112-.232.552-.466.321-.822-.328-.506-1.316-1.098-1.453-1.212-.233-.194.111-.342.344-.574-.284-.575-.802-.836-1.556-.933-.388 0-.103-.608.11-.84-.384-.396-1.104-.268-1.76-.136-.306-.033.166-.86-.385-.753z"/><path style="fill:#167ddd" d="M11.291 4.01c-.263.056-1.223 1.081-1.647 1.488-.485.465-.524.25-1.086.56-.563.31-.908.821-1.121 1.209-.214.387-.753.525-1.314 1.086-.56.56-1.122.882-1.122 1.909.023.02-.074.153.158.192.233.039.355-.05.49-.263.136-.213 1.477-.84 2.33-1.208.854-.368 1.395-.56 1.647-.928.252-.369.337-.332.84-.526.505-.194 1.507.034 2.244 1.139.737 1.105.81 1.975.79 4.185-.02 2.209-.739 3.395-1.63 4.868-.507.835-2.617 2.35-4.074 3.279h5.92c.147-.26.323-.561.413-.74.222-.437 1.928-5.106 2.347-8.09.074-.529.893-.656.652-1.288-.183-.48-1.43-1.544-1.458-1.602-.112-.232.552-.466.321-.822-.328-.506-1.316-1.098-1.453-1.212-.233-.194.111-.342.344-.574-.284-.575-.802-.836-1.556-.933-.388 0-.103-.608.11-.84-.384-.396-1.104-.268-1.76-.136-.306-.033.166-.86-.385-.753z"/><path style="opacity:.2;fill:#fff" d="M11.291 4.01c-.263.056-1.223 1.081-1.647 1.488-.485.465-.524.25-1.086.56-.563.31-.908.821-1.121 1.209-.214.387-.753.525-1.314 1.086-.56.56-1.122.882-1.122 1.909.016.013-.019.08.028.133.12-.747.607-1.055 1.094-1.542.56-.56 1.1-.699 1.314-1.086.213-.388.558-.898 1.12-1.208.563-.31.602-.096 1.087-.561.424-.407 1.384-1.432 1.647-1.488.55-.108.079.72.385.753.55-.11 1.142-.215 1.547-.014.06-.135.137-.267.214-.35-.385-.396-1.105-.268-1.761-.136-.306-.033.166-.86-.385-.753zm1.945 1.709c-.12.25-.17.52.09.52.597.077 1.044.259 1.346.615.072-.058.14-.112.21-.182-.284-.575-.802-.836-1.556-.933a.218.218 0 0 1-.09-.02zm1.446 1.628c-.17.138-.31.261-.144.4.128.106 1.002.635 1.38 1.118.102-.119.175-.251.073-.407-.292-.45-1.038-.923-1.31-1.111zm1.164 2.101c-.114.119-.227.226-.176.332.027.056 1.198 1.059 1.433 1.556a.498.498 0 0 0 .025-.454c-.16-.417-1.015-1.178-1.282-1.434zm-2.35 3.475c-.035 2.162-.745 3.341-1.627 4.798-.506.835-2.616 2.35-4.073 3.279h.749c1.352-.911 2.899-2.077 3.324-2.78.892-1.472 1.612-2.658 1.631-4.867.001-.166-.004-.279-.004-.43z"/><path style="opacity:.1" d="M18.5 7c-.5 0-.5 1.5-2 3s-2 1.5-2 1.5 1.5 1 1.5 3c1.5 1 1.5 3 1.5 3l2-5.5-.5-4z"/><path style="fill:#365d78" d="M18.5 6.5c-.5 0-.5 1.5-2 3s-2 1.5-2 1.5 1.5 1 1.5 3c1.5 1 1.5 3 1.5 3l2-5.5-.5-4z"/><path style="fill:#fff" d="M8 6.969c.044-.172.214-.33.49-.42.274-.09.479-.05.507.06.03.116-.156.28-.437.354-.279.073-.492.018-.56.006z"/><path style="fill:#2e3436" d="M8.428 6.572c-.026.01-.045.029-.069.042a.401.401 0 0 0 .017.197.65.65 0 0 0 .073.172c.041-.008.073-.007.117-.02a.521.521 0 0 0-.031-.194.482.482 0 0 0-.107-.197z"/><path style="opacity:.2" d="M18.5 7c.5 0 1.9 3 1.4 7.5S17 20 17 20s-3.5-.5-4.5-.5-1.5.5-1.5.5-1.5-1-3.5-1S3 21 3 21s.5-2 3.5-3 7.9-.08 9.5-2c5-6 2-9 2.5-9"/><path style="fill:#00d6cc" d="M18.5 6.5c.5 0 1.9 3 1.4 7.5S17 19.5 17 19.5s-3.5-.5-4.5-.5-1.5.5-1.5.5-1.5-1-3.5-1-4.5 2-4.5 2 .5-2 3.5-3 7.9-.08 9.5-2c5-6 2-9 2.5-9"/><path style="opacity:.2;fill:#fff" d="M18.5 6.5c-.12 0-.034.183.09.53.464.254 1.38 2.305 1.411 5.426.076-3.628-1.06-5.956-1.501-5.956zm.433 2.7c-.051 1.487-.668 3.582-2.933 6.3-1.6 1.92-6.5 1-9.5 2s-3.5 3-3.5 3 .16-.125.388-.287C3.823 19.542 4.712 18.596 6.5 18c3-1 7.9-.08 9.5-2 2.53-3.035 3.01-5.3 2.933-6.8z"/></svg>
